static/assets/img/icons/theme/files/selected-file.svg

<svg height="24" viewBox="0 0 24 24" width="24" xmlns="http://www.w3.org/2000/svg"><g fill="none" fill-rule="evenodd"><path d="m0 0h24v24h-24z" opacity="0"/><g fill="#000" fill-rule="nonzero"><path d="m4.85714286 1h6.87926854c.3546848 0 .6978952.12568431.9686994.35473959l4.7635886 4.02920201c.3369538.28500673.5313006.70393663.5313006 1.14526041v12.55413129c0 1.7905418-.0204479 1.9166667-1.8571429 1.9166667h-11.28571424c-1.83669499 0-1.85714286-.1261249-1.85714286-1.9166667v-16.16666663c0-1.79054178.02044787-1.91666667 1.85714286-1.91666667zm3.14285714 11c-.55228475 0-1 .4477153-1 1s.44771525 1 1 1h7c.5522847 0 1-.4477153 1-1s-.4477153-1-1-1zm0 4c-.55228475 0-1 .4477153-1 1s.44771525 1 1 1h3c.5522847 0 1-.4477153 1-1s-.4477153-1-1-1z" opacity=".3"/><path d="m6.85714286 3h7.87926854c.3546848 0 .6978952.12568431.9686994.35473959l4.7635886 4.02920201c.3369538.28500673.5313006.70393663.5313006 1.14526041v12.55413129c0 1.7905418-.0204479 1.9166667-1.8571429 1.9166667h-12.28571424c-1.83669499 0-1.85714286-.1261249-1.85714286-1.9166667v-16.16666663c0-1.79054178.02044787-1.91666667 1.85714286-1.91666667zm1.14285714 9c-.55228475 0-1 .4477153-1 1s.44771525 1 1 1h7c.5522847 0 1-.4477153 1-1s-.4477153-1-1-1zm0 4c-.55228475 0-1 .4477153-1 1s.44771525 1 1 1h3c.5522847 0 1-.4477153 1-1s-.4477153-1-1-1z"/></g></g></svg>

<svg width="24px" height="24px" viewBox="0 0 24 24" version="1.1" xmlns="http://www.w3.org/2000/svg" xmlns:xlink="http://www.w3.org/1999/xlink">
    <title>Icon For Selected-file</title>
    <g stroke="none" stroke-width="1" fill="none" fill-rule="evenodd">
        <polygon points="0 0 24 0 24 24 0 24" opacity="0"></polygon>
        <path d="M4.85714286,1 L11.7364114,1 C12.0910962,1 12.4343066,1.12568431 12.7051108,1.35473959 L17.4686994,5.3839416 C17.8056532,5.66894833 18,6.08787823 18,6.52920201 L18,19.0833333 C18,20.8738751 17.9795521,21 16.1428571,21 L4.85714286,21 C3.02044787,21 3,20.8738751 3,19.0833333 L3,2.91666667 C3,1.12612489 3.02044787,1 4.85714286,1 Z M8,12 C7.44771525,12 7,12.4477153 7,13 C7,13.5522847 7.44771525,14 8,14 L15,14 C15.5522847,14 16,13.5522847 16,13 C16,12.4477153 15.5522847,12 15,12 L8,12 Z M8,16 C7.44771525,16 7,16.4477153 7,17 C7,17.5522847 7.44771525,18 8,18 L11,18 C11.5522847,18 12,17.5522847 12,17 C12,16.4477153 11.5522847,16 11,16 L8,16 Z" fill="#000000" fill-rule="nonzero" opacity="0.3"></path>
        <path d="M6.85714286,3 L14.7364114,3 C15.0910962,3 15.4343066,3.12568431 15.7051108,3.35473959 L20.4686994,7.3839416 C20.8056532,7.66894833 21,8.08787823 21,8.52920201 L21,21.0833333 C21,22.8738751 20.9795521,23 19.1428571,23 L6.85714286,23 C5.02044787,23 5,22.8738751 5,21.0833333 L5,4.91666667 C5,3.12612489 5.02044787,3 6.85714286,3 Z M8,12 C7.44771525,12 7,12.4477153 7,13 C7,13.5522847 7.44771525,14 8,14 L15,14 C15.5522847,14 16,13.5522847 16,13 C16,12.4477153 15.5522847,12 15,12 L8,12 Z M8,16 C7.44771525,16 7,16.4477153 7,17 C7,17.5522847 7.44771525,18 8,18 L11,18 C11.5522847,18 12,17.5522847 12,17 C12,16.4477153 11.5522847,16 11,16 L8,16 Z" fill="#000000" fill-rule="nonzero"></path>
    </g>
</svg>
